X: 18455
T: Hurry The Jug
R: jig
M: 6/8
K: Edorian
D|EDE GFG|BAG FGE|DA,D FDF|ABF AFD|
EDE GFG|BAG FGA|B/c/dA B/c/dA|EFD E2 D|
EDE GFG|BAG FGE|DA,D FDF|ABF AFD|
EDE GFG|BAG FGA|B/c/dA B/c/dA|EFD E2||
B|AFA ~d3|~c3 dcd|AFA dcd|BAG FGA|
EGB e2f|gfe fed|EGB e2f|gfe fdB|
AFA ~d3|~c3 dcd|AFA dcd|BAG F2D|
EDE GFG|BAG FGA|B/c/dA B/c/dA|EFD E2||

